icon-themes/breeze_svg/cmd/32/numberingstart.svg

<svg viewBox="0 0 32 32" xmlns="http://www.w3.org/2000/svg"><path d="m4 14v1h1v4h-1v1h3v-1h-1v-4h1v-1h-1-1z" fill="#1d99f3"/><path d="m4 4v1h1v4h-1v1h5v-1h-1v-4h1v-1h-3-1zm7 0v1h17v-1zm-5 1h1v4h-1zm5 2v1h13v-1zm0 7v1h17v-1zm0 3v1h4v-1zm8 0v1h9v-1zm-8 7v1h17v-1zm0 3v1h11v-1zm13 1v1h4v-1z" fill="#4d4d4d"/></svg>

<svg xmlns="http://www.w3.org/2000/svg" viewBox="0 0 32 32">
 <path 
     style="fill:#1d99f3" 
     d="M 4 14 L 4 15 L 5 15 L 5 19 L 4 19 L 4 20 L 7 20 L 7 19 L 6 19 L 6 15 L 7 15 L 7 14 L 6 14 L 5 14 L 4 14 z "
     />
 <path 
     style="fill:#4d4d4d" 
     d="M 4 4 L 4 5 L 5 5 L 5 9 L 4 9 L 4 10 L 9 10 L 9 9 L 8 9 L 8 5 L 9 5 L 9 4 L 6 4 L 5 4 L 4 4 z M 11 4 L 11 5 L 28 5 L 28 4 L 11 4 z M 6 5 L 7 5 L 7 9 L 6 9 L 6 5 z M 11 7 L 11 8 L 24 8 L 24 7 L 11 7 z M 11 14 L 11 15 L 28 15 L 28 14 L 11 14 z M 11 17 L 11 18 L 15 18 L 15 17 L 11 17 z M 19 17 L 19 18 L 28 18 L 28 17 L 19 17 z M 11 24 L 11 25 L 28 25 L 28 24 L 11 24 z M 11 27 L 11 28 L 22 28 L 22 27 L 11 27 z M 24 28 L 24 29 L 28 29 L 28 28 L 24 28 z "
     />
</svg>
